X: 26478
T: Michael Burke's
R: jig
M: 6/8
K: Cmajor
|:FAA ABc|ded AFA|BEE dEE|BdB A2G|
FAA ABc|ded AFA|Bcd efg|fdc d3:|
|:fed edc|dcB AFA|BEE dEE|BdB AFA|
fed edc|dcB AFA|Bcd efg|fdc d3:|

